X: 80
T:Tinkerbell
% Nottingham Music Database
S:Chris Dewhurst (1979), via PR
M:4/4
L:1/4
K:D
a/2g/2|"D"fa/2f/2 df/2d/2|Ad/2A/2 FG|"D"A2 g3/2f/2|"A"fe e2|"A"eg/2e/2 ce/2c/2\
|
"A"Ac/2A/2 EA/2B/2|"A"ce a3/2g/2|"D"gf "A"fa/2g/2|"D"fa/2f/2 df/2d/2|\
Ad/2A/2 FA|
"D7"d2 e3/2f/2|"G"ag B2|"G"Bd "Gm"a3/2g/2|"D"fA "Bm"g3/2f/2|"Em"eg/2e/2 "A"ce|\
"D"d3F/2G/2||
"D"AF/2A/2 BF/2B/2|cF/2c/2 dc/2d/2|"Em"ee/2f/2 g/2f/2e/2d/2|"Em"B3c/2B/2|\
"A"AG/2A/2 cA/2c/2|
"A"ec/2e/2 ga/2g/2|"D"f/2g/2a/2f/2 "Em"dB|"A"A3F/2G/2|"D"AF/2A/2 dA/2d/2|\
fd/2f/2 ab|
"D7"=c'2 b3/2a/2|"G"b3a|"G"gB "Gm"a3/2g/2|"D"fA "Bm"g3/2f/2|"Em"eg/2e/2 "A"ce|\
"D"d3||


